X:1
T:Title
%%score { ( 1 2 ) | ( 3 4 ) }
L:1/8
M:4/4
K:E
V:1 treble nm="Grand Piano"
V:2 treble 
V:3 bass 
V:4 bass 
V:1
 z4 z2[Q:1/4=100] z F | G3 G A3 A | B2 B2 G2 z F | G3 G F2 EE |[M:3/4] [DB]6 |[M:1/4] GA | %6
[M:4/4] [B,GB]3 [B,GB] [Ge]3 [Ge] | z2 c2 z2 E2 | [B,EG]2 [CEA]2 [B,EG]2 [A,DF]2 | [G,E]6 z2 | %10
 [EGB]4 [B,EG]4 | [G,B,E]4 [CEA]4 | [B,EG]6 [EG][FA] | [GB]3 [GB] [Ge]3 [Ge] | z2 c2 z2 E2 | %15
 [B,EG]2 [CEA]2 [B,EG]2 [A,DF]2 |[M:8/4] [G,E]8 z8 |] %17
V:2
 z4 z2 E2 | x8 | z4 z2 E2 | x8 |[M:3/4] z2 z2 B,2 |[M:1/4] x2 |[M:4/4] x8 | d2 z F [EGB]2 G,F | %8
 x8 | x8 | x8 | x8 | x8 | x8 | d2 z F [EGB]2 G,F | x8 |[M:8/4] x16 |] %17
V:3
 z4 z2 G,A, | [E,B,E]3 [E,B,E] [F,B,D]3 [F,B,D] | [G,E]2 [G,E]2 [E,B,E]2 G,A, | %3
 [E,B,E]3 [E,B,E] [E,A,B,]2 .[E,G,B,]2 |[M:3/4] F,4 z2 |[M:1/4] EF |[M:4/4] E,3 E, [C,C]3 [C,C] | %7
 [G,^B,F]2 [CE]D[K:bass] E,2 z A, | E,2 A,,2 B,,2 B,,2 | E,6 z2 | E,4 E,4 | E,4 A,,4 | %12
 [E,,E,]6 [E,B,]2 | [E,B,]3 [E,B,] [C,C]3 [C,C] | [G,^B,F]2 [CE]D[K:bass] E,2 z A, | %15
 E,2 A,,2 B,,2 B,,2 |[M:8/4] E,8 z8 |] %17
V:4
 z4 z2 E,2 | x8 | z4 z2 E,2 | x8 |[M:3/4] B,,6 |[M:1/4] [E,B,]2 |[M:4/4] x8 | %7
 z2 A,2[K:bass] z2 E,2 | x8 | x8 | x8 | x8 | x8 | x8 | z2 A,2[K:bass] z2 E,2 | x8 |[M:8/4] x16 |] %17

